X: 12478
T: Farewell To Edinburgh
R: reel
M: 4/4
K: Amajor
|:e2|A2AA c2BA|cAce fecA|B2BB B2ce|feae f2ec|
A2AA c2BA|cAce fecA|B2A2A2fe|c2A2A2:|
|:(3efg|a3e feae|feae f2ec|B2BB B2ce|feae f2ec|
[1A2AA c2BA|cAce fecA|B2A2A2fe|c2A2A2:|
[2A2cA eAcA|cAce fecA|B2A2A2fe|c2A2A2||

